src/main/resources/icons/SpyJSIcons/icons/spy_js.svg

<svg xmlns="http://www.w3.org/2000/svg" width="16" height="16" viewBox="0 0 16 16">
  <g fill="none" fill-rule="evenodd">
    <path fill="#DDB47E" d="M2.49925242,8 L13.5007476,8 C13.821863,8.30623117 14,8.64444764 14,9 C14,9.56280296 13.5536662,10.0821697 12.8004394,10.5 L11.5,10.5 L8,13.9 L4.5,10.5 L3.19956058,10.5 C2.44633379,10.0821697 2,9.56280296 2,9 C2,8.64444764 2.178137,8.30623117 2.49925242,8 Z"/>
    <path fill="#231F20" fill-opacity=".7" d="M11.9927628,8 C11.9975531,8.05455368 12,8.10979509 12,8.1656189 C12,9.17871961 11.1941125,10 10.2,10 C9.31794525,10 8.58407321,9.35343614 8.42983447,8.5 L7.57016553,8.5 C7.41592679,9.35343614 6.68205475,10 5.8,10 C4.80588745,10 4,9.17871961 4,8.1656189 C4,8.10979509 4.00244685,8.05455368 4.00723723,8 L11.9927628,8 Z"/>
    <path fill="#40B6E0" fill-opacity=".7" d="M6.575301,1 C7.30801468,1 7.60890327,2.54334761 8,2.5 C8.44974341,2.45015222 8.7,0.999165375 9.5,0.9996 C10.5,0.99988975 11.3333333,2.66668975 12,6 L15,8.0000001 L1,8.0000001 L4,6 C4.66666667,2.66666667 5.52510033,1 6.575301,1 Z"/>
    <path fill="#231F20" fill-opacity=".7" d="M4.15153238,5 L11.8488813,5 C11.9001714,5.21367018 11.9505443,5.43589981 12,5.66668888 L12,6 L4,6 L4,5.66668888 C4.04945547,5.43589888 4.09996626,5.21366926 4.15153238,5 Z"/>
    <polygon fill="#40B6E0" fill-opacity=".7" points="3 10.5 4.5 10.5 8 13.9 11.5 10.5 13 10.5 12 13.5 14 15 2 15 4 13.5"/>
  </g>
</svg>

<svg xmlns="http://www.w3.org/2000/svg" width="16" height="16" viewBox="0 0 16 16"><rect id="frame" width="16" height="16" fill="none"/><g fill="none" fill-rule="evenodd"><path fill="#DDB47E" d="M2.5 8h11c.322.306.5.644.5 1 0 .563-.446 1.082-1.2 1.5h-1.3L8 13.9l-3.5-3.4H3.2C2.446 10.082 2 9.563 2 9c0-.356.178-.694.5-1z"/><path fill="#231F20" fill-opacity=".7" d="M11.993 8c.005.055.007.11.007.166C12 9.179 11.194 10 10.2 10a1.81 1.81 0 0 1-1.77-1.5h-.86A1.81 1.81 0 0 1 5.8 10C4.806 10 4 9.179 4 8.166c0-.056.002-.111.007-.166h7.986z"/><path fill="#40B6E0" fill-opacity=".7" d="M6.575 1C7.308 1 7.61 2.543 8 2.5c.45-.05.7-1.5 1.5-1.5 1 0 1.833 1.667 2.5 5l3 2H1l3-2c.667-3.333 1.525-5 2.575-5z"/><path fill="#231F20" fill-opacity=".7" d="M4.152 5h7.697c.051.214.102.436.151.667V6H4v-.333c.05-.231.1-.453.152-.667z"/><path fill="#40B6E0" fill-opacity=".7" d="M3 10.5h1.5L8 13.9l3.5-3.4H13l-1 3 2 1.5H2l2-1.5z"/></g></svg>
